svgs/thin/credit-card-blank.svg

<svg xmlns="http://www.w3.org/2000/svg" viewBox="0 0 576 512"><!--! Font Awesome Pro 6.6.0 by @fontawesome - https://fontawesome.com License - https://fontawesome.com/license (Commercial License) Copyright 2024 Fonticons, Inc. --><path d="M64 48C37.5 48 16 69.5 16 96l0 320c0 26.5 21.5 48 48 48l448 0c26.5 0 48-21.5 48-48l0-320c0-26.5-21.5-48-48-48L64 48zM0 96C0 60.7 28.7 32 64 32l448 0c35.3 0 64 28.7 64 64l0 320c0 35.3-28.7 64-64 64L64 480c-35.3 0-64-28.7-64-64L0 96zM96 360c0-4.4 3.6-8 8-8l80 0c4.4 0 8 3.6 8 8s-3.6 8-8 8l-80 0c-4.4 0-8-3.6-8-8zm128 0c0-4.4 3.6-8 8-8l144 0c4.4 0 8 3.6 8 8s-3.6 8-8 8l-144 0c-4.4 0-8-3.6-8-8z"/></svg>

<svg xmlns="http://www.w3.org/2000/svg" viewBox="0 0 576 512"><!--! Font Awesome Pro 6.4.2 by @fontawesome - https://fontawesome.com License - https://fontawesome.com/license (Commercial License) Copyright 2023 Fonticons, Inc. --><path d="M64 48C37.5 48 16 69.5 16 96V416c0 26.5 21.5 48 48 48H512c26.5 0 48-21.5 48-48V96c0-26.5-21.5-48-48-48H64zM0 96C0 60.7 28.7 32 64 32H512c35.3 0 64 28.7 64 64V416c0 35.3-28.7 64-64 64H64c-35.3 0-64-28.7-64-64V96zM96 360c0-4.4 3.6-8 8-8h80c4.4 0 8 3.6 8 8s-3.6 8-8 8H104c-4.4 0-8-3.6-8-8zm128 0c0-4.4 3.6-8 8-8H376c4.4 0 8 3.6 8 8s-3.6 8-8 8H232c-4.4 0-8-3.6-8-8z"/></svg>
